src/icons/services/photography.svg

<svg width="52" height="52" viewBox="0 0 52 52" fill="none" xmlns="http://www.w3.org/2000/svg">
<path d="M8.66683 8.66683H15.1668L19.5002 4.3335H32.5002L36.8335 8.66683H43.3335C44.4828 8.66683 45.585 9.12338 46.3976 9.93603C47.2103 10.7487 47.6668 11.8509 47.6668 13.0002V39.0002C47.6668 40.1494 47.2103 41.2516 46.3976 42.0643C45.585 42.8769 44.4828 43.3335 43.3335 43.3335H8.66683C7.51756 43.3335 6.41536 42.8769 5.6027 42.0643C4.79004 41.2516 4.3335 40.1494 4.3335 39.0002V13.0002C4.3335 11.8509 4.79004 10.7487 5.6027 9.93603C6.41536 9.12338 7.51756 8.66683 8.66683 8.66683ZM26.0002 15.1668C23.127 15.1668 20.3715 16.3082 18.3398 18.3398C16.3082 20.3715 15.1668 23.127 15.1668 26.0002C15.1668 28.8733 16.3082 31.6288 18.3398 33.6605C20.3715 35.6921 23.127 36.8335 26.0002 36.8335C28.8733 36.8335 31.6288 35.6921 33.6605 33.6605C35.6921 31.6288 36.8335 28.8733 36.8335 26.0002C36.8335 23.127 35.6921 20.3715 33.6605 18.3398C31.6288 16.3082 28.8733 15.1668 26.0002 15.1668ZM26.0002 19.5002C27.7241 19.5002 29.3774 20.185 30.5964 21.404C31.8153 22.623 32.5002 24.2763 32.5002 26.0002C32.5002 27.7241 31.8153 29.3774 30.5964 30.5964C29.3774 31.8153 27.7241 32.5002 26.0002 32.5002C24.2763 32.5002 22.623 31.8153 21.404 30.5964C20.185 29.3774 19.5002 27.7241 19.5002 26.0002C19.5002 24.2763 20.185 22.623 21.404 21.404C22.623 20.185 24.2763 19.5002 26.0002 19.5002Z" fill="#9D74D3"/>
</svg>

<svg xmlns="http://www.w3.org/2000/svg" width="52" height="52" fill="none"  ><path d="M8.667 8.667h6.5L19.5 4.334h13l4.333 4.333h6.5c1.149 0 2.252.457 3.064 1.269s1.269 1.915 1.269 3.064v26c0 1.149-.457 2.251-1.269 3.064s-1.915 1.269-3.064 1.269H8.667c-1.149 0-2.251-.457-3.064-1.269S4.334 40.149 4.334 39V13c0-1.149.457-2.251 1.269-3.064s1.915-1.269 3.064-1.269zM26 15.167c-2.873 0-5.629 1.141-7.66 3.173s-3.173 4.787-3.173 7.66 1.141 5.629 3.173 7.66 4.787 3.173 7.66 3.173 5.629-1.141 7.66-3.173 3.173-4.787 3.173-7.66-1.141-5.629-3.173-7.66-4.787-3.173-7.66-3.173zm0 4.333a6.5 6.5 0 0 1 6.5 6.5 6.5 6.5 0 0 1-6.5 6.5 6.5 6.5 0 0 1-6.5-6.5 6.5 6.5 0 0 1 6.5-6.5z" fill="#9d74d3"/></svg>
